**kern	**kern	**dynam
*part1	*part1	*part1
*staff2	*staff1	*
*I"Piano	*	*
*clefF4	*clefG2	*
*k[b-e-]	*k[b-e-]	*
*	* \nDie Fermate gilt nur für die 1\nte\n Strophe / The fermata only applies to the 1st verse	*
=1	=1	=1
*tremolo	*	*
*	*tremolo	*
8C 8GL	8c 8e- 8gL	.
8C 8G	8c 8e- 8g	.
8C 8G	8c 8e- 8g	.
8C 8GJ	8c 8e- 8gJ	.
*Xtremolo	*	*
4C 4G	4c 4e- 4g	.
8.AAnL 8.An	8.cL 8.e- 8.f#X	.
16GGJk 16G	16cJk 16e- 16g	.
=	=	=
4FF#X; 4F#X	4c; 4e- 4an	.
8FF# 8F#	8d 8a	.
8r	8r	.
8GG 8G	8d 8g	p
8r	8r	.
8DD 8D	8c 8f#X	.
8r	8r	.
=	=	=
2GG 2D	8B- 8gL	.
.	8B- 8g	.
.	8B- 8g	.
.	8B- 8gJ	.
4r	8B- 8gL	.
.	8B- 8g	.
[4G^	8B- 8g	.
.	8B- 8gJ	.
=	=	=
*^	*	*
4G]	2D	8c 8aL	mp
.	.	8c 8a	.
8.F#XL	.	8c 8a	.
.	.	8c 8aJ	.
16E-Jk	.	.	.
*v	*v	*	*
4D	8cL 8a	.
.	8c 8a	.
[4c^	8d 8a	.
.	8dJ 8a	.
=	=	=
*^	*^	*
4c]	[2G	8aL	8dL	.
.	.	8aJ	8d	.
8.B-L	.	8.gL	8d	.
.	.	.	8dJ	.
16AJk	.	16f#XJk	.	.
*	*	*Xtremolo	*	*
4B-	4G]	4g	8dL	>
.	.	.	8d	.
*v	*v	*	*	*
4C 4c	4a	8e-	.
.	.	8e-J	p
*	*v	*v	*
=:|!	=:|!	=:|!
*^	*	*
8r	2D	4d	] <
8GL 8B-	.	.	.
8G 8B-	.	[4g	.
8GJ 8B-	.	.	.
8r	2D	8gL]	.
8AL 8c	.	8f#XJ	.
*	*	*^	*
8c	.	8.b-;L	4f#	.
8cJ	.	.	.	.
.	.	16aJk	.	.
*v	*v	*	*	*
*	*v	*v	*
=	=	=
2GG 2D 2G	2B-; 2g	[ mp
4r	4r	.
==	==	==
*-	*-	*-
!!!system-decoration: {(s1,s2)}
